images/dvision.svg

<svg height="250" viewBox="0 0 250 250" width="250" xmlns="http://www.w3.org/2000/svg"><path d="m198.875 105.332031c0-.164062-.125-.25-.25-.332031v-.082031c-.125-.25-.375-.417969-.625-.5l-98.75-38.085938-.25-.082031c-.125-.082031-.375-.082031-.5-.082031h-46.125-.125c-.125 0-.125 0-.25 0h-.125c-.125 0-.125.082031-.25.082031s-.125.082031-.25.167969c-.125.082031-.125.164062-.25.25v.082031c0 .082031-.125.167969-.125.25v.082031l.125.75 23.75 113.835938.25.914062.125.585938c0 .164062.125.332031.25.414062 0 0 0 0 .125.085938.125.082031.375.164062.625.25h.125 46.125c.125 0 .25 0 .375-.085938.125 0 .25-.082031.375-.082031h.125s.125 0 .125-.082031c0 0 .125-.085938.125-.085938l74.625-77h.125v-.082031l.5-.5c0-.25.125-.5 0-.667969zm-86 37.917969-17.25 17.832031-17.25-82.832031 22.875 8.832031zm2.125-2.25-10.875-52.832031 45.25 17.5zm.75 3.167969 36.375-37.585938h18l-51.375 52.835938zm-15-59.585938-22.875-8.832031-1.625-7.667969h21zm-4.5 79.667969 17.25-17.832031 3.125 15.25-17.25 17.832031zm55.875-59.832031c-.125 0-.125-.085938-.25-.085938l-48.375-18.664062-3.5-16.917969 92 35.667969zm0 0" fill="#1d1f2a"/></svg>

<!-- Generator: Adobe Illustrator 25.2.2, SVG Export Plug-In . SVG Version: 6.00 Build 0)  -->
<svg xmlns="http://www.w3.org/2000/svg" xmlns:xlink="http://www.w3.org/1999/xlink" width="250px" height="250px" viewBox="0 0 250 250" version="1.1">
<g id="surface1">
<path style=" stroke:none;fill-rule:nonzero;fill:rgb(11.372549%,12.156863%,16.470589%);fill-opacity:1;" d="M 198.875 105.332031 C 198.875 105.167969 198.75 105.082031 198.625 105 C 198.625 105 198.625 104.917969 198.625 104.917969 C 198.5 104.667969 198.25 104.5 198 104.417969 L 99.25 66.332031 L 99 66.25 C 98.875 66.167969 98.625 66.167969 98.5 66.167969 L 52.375 66.167969 C 52.375 66.167969 52.25 66.167969 52.25 66.167969 C 52.125 66.167969 52.125 66.167969 52 66.167969 C 52 66.167969 51.875 66.167969 51.875 66.167969 C 51.75 66.167969 51.75 66.25 51.625 66.25 C 51.5 66.25 51.5 66.332031 51.375 66.417969 C 51.25 66.5 51.25 66.582031 51.125 66.667969 C 51.125 66.667969 51.125 66.75 51.125 66.75 C 51.125 66.832031 51 66.917969 51 67 C 51 67 51 67.082031 51 67.082031 L 51.125 67.832031 L 74.875 181.667969 L 75.125 182.582031 L 75.25 183.167969 C 75.25 183.332031 75.375 183.5 75.5 183.582031 C 75.5 183.582031 75.5 183.582031 75.625 183.667969 C 75.75 183.75 76 183.832031 76.25 183.917969 C 76.375 183.917969 76.375 183.917969 76.375 183.917969 L 122.5 183.917969 C 122.625 183.917969 122.75 183.917969 122.875 183.832031 C 123 183.832031 123.125 183.75 123.25 183.75 C 123.25 183.75 123.25 183.75 123.375 183.75 C 123.375 183.75 123.5 183.75 123.5 183.667969 C 123.5 183.667969 123.625 183.582031 123.625 183.582031 L 198.25 106.582031 L 198.375 106.582031 L 198.375 106.5 L 198.875 106 C 198.875 105.75 199 105.5 198.875 105.332031 Z M 112.875 143.25 L 95.625 161.082031 L 78.375 78.25 L 101.25 87.082031 Z M 115 141 L 104.125 88.167969 L 149.375 105.667969 Z M 115.75 144.167969 L 152.125 106.582031 L 170.125 106.582031 L 118.75 159.417969 Z M 100.75 84.582031 L 77.875 75.75 L 76.25 68.082031 L 97.25 68.082031 Z M 96.25 164.25 L 113.5 146.417969 L 116.625 161.667969 L 99.375 179.5 Z M 152.125 104.417969 C 152 104.417969 152 104.332031 151.875 104.332031 L 103.5 85.667969 L 100 68.75 L 192 104.417969 Z M 152.125 104.417969 "/>
</g>
</svg>
